symbolia-neutral/scalable/actions/document-import.svg

<svg xmlns="http://www.w3.org/2000/svg" height="24" viewBox="0 0 24 24" width="24"><path fill="#afafaf" d="M10.79 16.29c.39.39 1.02.39 1.41 0l3.59-3.59c.39-.39.39-1.02 0-1.41L12.2 7.7c-.39-.39-1.02-.39-1.41 0-.39.39-.39 1.02 0 1.41L12.67 11H4c-.55 0-1 .45-1 1s.45 1 1 1h8.67l-1.88 1.88c-.39.39-.38 1.03 0 1.41zM19 3H5c-1.11 0-2 .9-2 2v3c0 .55.45 1 1 1s1-.45 1-1V6c0-.55.45-1 1-1h12c.55 0 1 .45 1 1v12c0 .55-.45 1-1 1H6c-.55 0-1-.45-1-1v-2c0-.55-.45-1-1-1s-1 .45-1 1v3c0 1.1.9 2 2 2h14c1.1 0 2-.9 2-2V5c0-1.1-.9-2-2-2z"/></svg>

<?xml version="1.0" encoding="UTF-8" standalone="no"?>
<svg
   xmlns:dc="http://purl.org/dc/elements/1.1/"
   xmlns:cc="http://creativecommons.org/ns#"
   xmlns:rdf="http://www.w3.org/1999/02/22-rdf-syntax-ns#"
   xmlns:svg="http://www.w3.org/2000/svg"
   xmlns="http://www.w3.org/2000/svg"
   xmlns:sodipodi="http://sodipodi.sourceforge.net/DTD/sodipodi-0.dtd"
   xmlns:inkscape="http://www.inkscape.org/namespaces/inkscape"
   height="24"
   viewBox="0 0 24 24"
   width="24"
   version="1.1"
   id="svg4"
   sodipodi:docname="document-import-rtl (copy).svg"
   inkscape:version="1.0.2 (e86c870879, 2021-01-15)">
  <metadata
     id="metadata10">
    <rdf:RDF>
      <cc:Work
         rdf:about="">
        <dc:format>image/svg+xml</dc:format>
        <dc:type
           rdf:resource="http://purl.org/dc/dcmitype/StillImage" />
      </cc:Work>
    </rdf:RDF>
  </metadata>
  <defs
     id="defs8" />
  <sodipodi:namedview
     pagecolor="#ffffff"
     bordercolor="#666666"
     borderopacity="1"
     objecttolerance="10"
     gridtolerance="10"
     guidetolerance="10"
     inkscape:pageopacity="0"
     inkscape:pageshadow="2"
     inkscape:window-width="3824"
     inkscape:window-height="2107"
     id="namedview6"
     showgrid="false"
     inkscape:zoom="42"
     inkscape:cx="5.5238095"
     inkscape:cy="12"
     inkscape:window-x="8"
     inkscape:window-y="33"
     inkscape:window-maximized="0"
     inkscape:current-layer="svg4"
     inkscape:document-rotation="0" />
  <path fill="#afafaf"
     d="m 10.79,16.29 c 0.39,0.39 1.02,0.39 1.41,0 l 3.59,-3.59 c 0.39,-0.39 0.39,-1.02 0,-1.41 L 12.2,7.7 c -0.39,-0.39 -1.02,-0.39 -1.41,0 -0.39,0.39 -0.39,1.02 0,1.41 L 12.67,11 H 4 c -0.55,0 -1,0.45 -1,1 0,0.55 0.45,1 1,1 h 8.67 l -1.88,1.88 c -0.39,0.39 -0.38,1.03 0,1.41 z M 19,3 H 5 C 3.89,3 3,3.9 3,5 V 8 C 3,8.55 3.45,9 4,9 4.55,9 5,8.55 5,8 V 6 C 5,5.45 5.45,5 6,5 h 12 c 0.55,0 1,0.45 1,1 v 12 c 0,0.55 -0.45,1 -1,1 H 6 C 5.45,19 5,18.55 5,18 V 16 C 5,15.45 4.55,15 4,15 3.45,15 3,15.45 3,16 v 3 c 0,1.1 0.9,2 2,2 h 14 c 1.1,0 2,-0.9 2,-2 V 5 C 21,3.9 20.1,3 19,3 Z"
     id="path2" />
</svg>
